X:1840
L:1/8
Q:1/8=180
M:4/4
K:G
 FE | D2 DE G2 GA | BGBd cBAG | GFEF DEFG | AFdF E2 FE | D2 DE G2 GA | BGBd efge | dcBA GFGA | 
 B2 G2 G2 :| ef | gfga gbag | fefg fagf | edef gfed | B2 e2 e2 fg | dBGB d2 cB | egfa gfge | 
 dcBA GFGA | B2 G2 G2 :|

